public/images/grad-courses/software_systems.svg

<svg xmlns="http://www.w3.org/2000/svg" xml:space="preserve" style="fill-rule:evenodd;clip-rule:evenodd;stroke-linejoin:round;stroke-miterlimit:2" viewBox="0 0 2400 1800"><path d="M0 0h2400v1800H0z" style="fill:url(#a)" transform="translate(2.708)"/><path d="M708.542 461.709h982.918v142.202c0 78.483-220.22 142.201-491.46 142.201-271.243 0-491.458-63.718-491.458-142.201z" style="fill:#8ce8ff" transform="translate(368.198 378.033)scale(.40958)"/><ellipse cx="1124.9" cy="392.181" rx="630.292" ry="142.202" style="fill:#0082a5" transform="matrix(.31936 0 0 .40958 500.442 406.51)"/><path d="M708.542 461.709h982.918v142.202c0 78.483-220.22 142.201-491.46 142.201-271.243 0-491.458-63.718-491.458-142.201z" style="fill:#8ce8ff" transform="translate(368.198 261.548)scale(.40958)"/><ellipse cx="1124.9" cy="392.181" rx="630.292" ry="142.202" style="fill:#0082a5" transform="matrix(.31936 0 0 .40958 500.442 290.025)"/><path d="M708.542 461.709h982.918v142.202c0 78.483-220.22 142.201-491.46 142.201-271.243 0-491.458-63.718-491.458-142.201z" style="fill:#8ce8ff" transform="translate(368.198 145.063)scale(.40958)"/><ellipse cx="1124.9" cy="392.181" rx="630.292" ry="142.202" style="fill:#0082a5" transform="matrix(.31936 0 0 .40958 500.442 173.54)"/><path d="M708.542 461.709h982.918v142.202c0 78.483-220.22 142.201-491.46 142.201-271.243 0-491.458-63.718-491.458-142.201z" style="fill:#8ce8ff" transform="translate(708.508 895.288)scale(.40958)"/><ellipse cx="1124.9" cy="392.181" rx="630.292" ry="142.202" style="fill:#0082a5" transform="matrix(.31936 0 0 .40958 840.752 923.765)"/><path d="M708.542 461.709h982.918v142.202c0 78.483-220.22 142.201-491.46 142.201-271.243 0-491.458-63.718-491.458-142.201z" style="fill:#8ce8ff" transform="translate(708.508 778.803)scale(.40958)"/><ellipse cx="1124.9" cy="392.181" rx="630.292" ry="142.202" style="fill:#0082a5" transform="matrix(.31936 0 0 .40958 840.752 807.28)"/><path d="M708.542 461.709h982.918v142.202c0 78.483-220.22 142.201-491.46 142.201-271.243 0-491.458-63.718-491.458-142.201z" style="fill:#8ce8ff" transform="translate(708.508 662.318)scale(.40958)"/><ellipse cx="1124.9" cy="392.181" rx="630.292" ry="142.202" style="fill:#0082a5" transform="matrix(.31936 0 0 .40958 840.752 690.795)"/><path d="M708.542 461.709h982.918v142.202c0 78.483-220.22 142.201-491.46 142.201-271.243 0-491.458-63.718-491.458-142.201z" style="fill:#8ce8ff" transform="translate(1048.82 370.223)scale(.40958)"/><ellipse cx="1124.9" cy="392.181" rx="630.292" ry="142.202" style="fill:#0082a5" transform="matrix(.31936 0 0 .40958 1181.06 398.7)"/><path d="M708.542 461.709h982.918v142.202c0 78.483-220.22 142.201-491.46 142.201-271.243 0-491.458-63.718-491.458-142.201z" style="fill:#8ce8ff" transform="translate(1048.82 253.738)scale(.40958)"/><ellipse cx="1124.9" cy="392.181" rx="630.292" ry="142.202" style="fill:#0082a5" transform="matrix(.31936 0 0 .40958 1181.06 282.215)"/><path d="M708.542 461.709h982.918v142.202c0 78.483-220.22 142.201-491.46 142.201-271.243 0-491.458-63.718-491.458-142.201z" style="fill:#8ce8ff" transform="translate(1048.82 137.253)scale(.40958)"/><ellipse cx="1124.9" cy="392.181" rx="630.292" ry="142.202" style="fill:#0082a5" transform="matrix(.31936 0 0 .40958 1181.06 165.73)"/><path d="M216.705 929.421v14.166l-50.785-21.794L216.705 900v14.166h404.952V900l50.785 21.793-50.785 21.794v-14.166z" style="fill:#6bffe1" transform="matrix(.2578 .37362 -.87063 .60076 1591.61 92.887)"/><path d="M216.705 929.421v14.166l-50.785-21.794L216.705 900v14.166h404.952V900l50.785 21.793-50.785 21.794v-14.166z" style="fill:#6bffe1" transform="matrix(.2578 .37362 -.87063 .60076 2209.55 578.949)"/><path d="M216.705 929.421v14.166l-50.785-21.794L216.705 900v14.166h404.952V900l50.785 21.793-50.785 21.794v-14.166z" style="fill:#6bffe1" transform="matrix(.45393 0 0 1.05778 1012.7 -473.973)"/><path d="M216.705 929.421v14.166l-50.785-21.794L216.705 900v14.166h404.952V900l50.785 21.793-50.785 21.794v-14.166z" style="fill:#6bffe1" transform="matrix(.45393 0 0 1.05778 321.794 -473.973)"/><path d="M216.705 929.421v14.166l-50.785-21.794L216.705 900v14.166h404.952V900l50.785 21.793-50.785 21.794v-14.166z" style="fill:#6bffe1" transform="matrix(.45393 0 0 1.05778 1692.62 -473.973)"/><path d="M216.705 929.421v14.166l-50.785-21.794L216.705 900v14.166h404.952V900l50.785 21.793-50.785 21.794v-14.166z" style="fill:#6bffe1" transform="matrix(-.2578 .37362 .87063 .60076 814.344 92.887)"/><path d="M216.705 929.421v14.166l-50.785-21.794L216.705 900v14.166h404.952V900l50.785 21.793-50.785 21.794v-14.166z" style="fill:#6bffe1" transform="matrix(-.2578 .37362 .87063 .60076 202.658 578.949)"/><circle cx="350.515" cy="326.696" r="69.786" style="fill:#fff" transform="translate(1830.55 113.703)scale(.84233)"/><circle cx="350.515" cy="326.696" r="69.786" style="fill:#fff" transform="translate(1729.95 178.197)scale(1.12934)"/><path d="M256.951 490.046h187.128v93.564H256.951z" style="fill:#fff" transform="translate(1830.55 134.365)scale(.84233)"/><circle cx="350.515" cy="326.696" r="69.786" style="fill:#fff" transform="translate(-21.056 113.703)scale(.84233)"/><circle cx="350.515" cy="326.696" r="69.786" style="fill:#fff" transform="translate(-121.656 178.197)scale(1.12934)"/><path d="M256.951 490.046h187.128v93.564H256.951z" style="fill:#fff" transform="translate(-21.056 134.365)scale(.84233)"/><circle cx="350.515" cy="326.696" r="69.786" style="fill:#fff" transform="translate(1408.17 1019.622)scale(.84233)"/><circle cx="350.515" cy="326.696" r="69.786" style="fill:#fff" transform="translate(1307.57 1084.116)scale(1.12934)"/><path d="M256.951 490.046h187.128v93.564H256.951z" style="fill:#fff" transform="translate(1408.17 1040.284)scale(.84233)"/><circle cx="350.515" cy="326.696" r="69.786" style="fill:#fff" transform="translate(407.287 1019.622)scale(.84233)"/><circle cx="350.515" cy="326.696" r="69.786" style="fill:#fff" transform="translate(306.687 1084.116)scale(1.12934)"/><path d="M256.951 490.046h187.128v93.564H256.951z" style="fill:#fff" transform="translate(407.287 1040.284)scale(.84233)"/><defs><linearGradient id="a" x1="0" x2="1" y1="0" y2="0" gradientTransform="matrix(2100 2100 -2100 2100 150 -150)" gradientUnits="userSpaceOnUse"><stop offset="0" style="stop-color:black;stop-opacity:1"/><stop offset="1" style="stop-color:#008eb5;stop-opacity:1"/></linearGradient></defs></svg>

<?xml version="1.0" encoding="UTF-8" standalone="no"?>
<!DOCTYPE svg PUBLIC "-//W3C//DTD SVG 1.1//EN" "http://www.w3.org/Graphics/SVG/1.1/DTD/svg11.dtd">
<svg width="100%" height="100%" viewBox="0 0 2400 1800" version="1.1" xmlns="http://www.w3.org/2000/svg" xmlns:xlink="http://www.w3.org/1999/xlink" xml:space="preserve" xmlns:serif="http://www.serif.com/" style="fill-rule:evenodd;clip-rule:evenodd;stroke-linejoin:round;stroke-miterlimit:2;">
    <g transform="matrix(1,0,0,1,2.70819,0)">
        <rect x="0" y="0" width="2400" height="1800" style="fill:url(#_Linear1);"/>
    </g>
    <g transform="matrix(0.409577,0,0,0.409577,368.198,378.033)">
        <path d="M708.542,461.709L1691.46,461.709L1691.46,603.911C1691.46,682.394 1471.24,746.112 1200,746.112C928.757,746.112 708.542,682.394 708.542,603.911L708.542,461.709Z" style="fill:rgb(140,232,255);"/>
    </g>
    <g transform="matrix(0.31936,0,0,0.409577,500.442,406.51)">
        <ellipse cx="1124.9" cy="392.181" rx="630.292" ry="142.202" style="fill:rgb(0,130,165);"/>
    </g>
    <g transform="matrix(0.409577,0,0,0.409577,368.198,261.548)">
        <path d="M708.542,461.709L1691.46,461.709L1691.46,603.911C1691.46,682.394 1471.24,746.112 1200,746.112C928.757,746.112 708.542,682.394 708.542,603.911L708.542,461.709Z" style="fill:rgb(140,232,255);"/>
    </g>
    <g transform="matrix(0.31936,0,0,0.409577,500.442,290.025)">
        <ellipse cx="1124.9" cy="392.181" rx="630.292" ry="142.202" style="fill:rgb(0,130,165);"/>
    </g>
    <g transform="matrix(0.409577,0,0,0.409577,368.198,145.063)">
        <path d="M708.542,461.709L1691.46,461.709L1691.46,603.911C1691.46,682.394 1471.24,746.112 1200,746.112C928.757,746.112 708.542,682.394 708.542,603.911L708.542,461.709Z" style="fill:rgb(140,232,255);"/>
    </g>
    <g transform="matrix(0.31936,0,0,0.409577,500.442,173.54)">
        <ellipse cx="1124.9" cy="392.181" rx="630.292" ry="142.202" style="fill:rgb(0,130,165);"/>
    </g>
    <g transform="matrix(0.409577,0,0,0.409577,708.508,895.288)">
        <path d="M708.542,461.709L1691.46,461.709L1691.46,603.911C1691.46,682.394 1471.24,746.112 1200,746.112C928.757,746.112 708.542,682.394 708.542,603.911L708.542,461.709Z" style="fill:rgb(140,232,255);"/>
    </g>
    <g transform="matrix(0.31936,0,0,0.409577,840.752,923.765)">
        <ellipse cx="1124.9" cy="392.181" rx="630.292" ry="142.202" style="fill:rgb(0,130,165);"/>
    </g>
    <g transform="matrix(0.409577,0,0,0.409577,708.508,778.803)">
        <path d="M708.542,461.709L1691.46,461.709L1691.46,603.911C1691.46,682.394 1471.24,746.112 1200,746.112C928.757,746.112 708.542,682.394 708.542,603.911L708.542,461.709Z" style="fill:rgb(140,232,255);"/>
    </g>
    <g transform="matrix(0.31936,0,0,0.409577,840.752,807.28)">
        <ellipse cx="1124.9" cy="392.181" rx="630.292" ry="142.202" style="fill:rgb(0,130,165);"/>
    </g>
    <g transform="matrix(0.409577,0,0,0.409577,708.508,662.318)">
        <path d="M708.542,461.709L1691.46,461.709L1691.46,603.911C1691.46,682.394 1471.24,746.112 1200,746.112C928.757,746.112 708.542,682.394 708.542,603.911L708.542,461.709Z" style="fill:rgb(140,232,255);"/>
    </g>
    <g transform="matrix(0.31936,0,0,0.409577,840.752,690.795)">
        <ellipse cx="1124.9" cy="392.181" rx="630.292" ry="142.202" style="fill:rgb(0,130,165);"/>
    </g>
    <g transform="matrix(0.409577,0,0,0.409577,1048.82,370.223)">
        <path d="M708.542,461.709L1691.46,461.709L1691.46,603.911C1691.46,682.394 1471.24,746.112 1200,746.112C928.757,746.112 708.542,682.394 708.542,603.911L708.542,461.709Z" style="fill:rgb(140,232,255);"/>
    </g>
    <g transform="matrix(0.31936,0,0,0.409577,1181.06,398.7)">
        <ellipse cx="1124.9" cy="392.181" rx="630.292" ry="142.202" style="fill:rgb(0,130,165);"/>
    </g>
    <g transform="matrix(0.409577,0,0,0.409577,1048.82,253.738)">
        <path d="M708.542,461.709L1691.46,461.709L1691.46,603.911C1691.46,682.394 1471.24,746.112 1200,746.112C928.757,746.112 708.542,682.394 708.542,603.911L708.542,461.709Z" style="fill:rgb(140,232,255);"/>
    </g>
    <g transform="matrix(0.31936,0,0,0.409577,1181.06,282.215)">
        <ellipse cx="1124.9" cy="392.181" rx="630.292" ry="142.202" style="fill:rgb(0,130,165);"/>
    </g>
    <g transform="matrix(0.409577,0,0,0.409577,1048.82,137.253)">
        <path d="M708.542,461.709L1691.46,461.709L1691.46,603.911C1691.46,682.394 1471.24,746.112 1200,746.112C928.757,746.112 708.542,682.394 708.542,603.911L708.542,461.709Z" style="fill:rgb(140,232,255);"/>
    </g>
    <g transform="matrix(0.31936,0,0,0.409577,1181.06,165.73)">
        <ellipse cx="1124.9" cy="392.181" rx="630.292" ry="142.202" style="fill:rgb(0,130,165);"/>
    </g>
    <g transform="matrix(0.257804,0.373617,-0.870633,0.600755,1591.61,92.8874)">
        <path d="M216.705,929.421L216.705,943.587L165.92,921.793L216.705,900L216.705,914.166L621.657,914.166L621.657,900L672.442,921.793L621.657,943.587L621.657,929.421L216.705,929.421Z" style="fill:rgb(107,255,225);"/>
    </g>
    <g transform="matrix(0.257804,0.373617,-0.870633,0.600755,2209.55,578.949)">
        <path d="M216.705,929.421L216.705,943.587L165.92,921.793L216.705,900L216.705,914.166L621.657,914.166L621.657,900L672.442,921.793L621.657,943.587L621.657,929.421L216.705,929.421Z" style="fill:rgb(107,255,225);"/>
    </g>
    <g transform="matrix(0.45393,9.15718e-17,-6.10478e-17,1.05778,1012.7,-473.973)">
        <path d="M216.705,929.421L216.705,943.587L165.92,921.793L216.705,900L216.705,914.166L621.657,914.166L621.657,900L672.442,921.793L621.657,943.587L621.657,929.421L216.705,929.421Z" style="fill:rgb(107,255,225);"/>
    </g>
    <g transform="matrix(0.45393,9.15718e-17,-6.10478e-17,1.05778,321.794,-473.973)">
        <path d="M216.705,929.421L216.705,943.587L165.92,921.793L216.705,900L216.705,914.166L621.657,914.166L621.657,900L672.442,921.793L621.657,943.587L621.657,929.421L216.705,929.421Z" style="fill:rgb(107,255,225);"/>
    </g>
    <g transform="matrix(0.45393,9.15718e-17,-6.10478e-17,1.05778,1692.62,-473.973)">
        <path d="M216.705,929.421L216.705,943.587L165.92,921.793L216.705,900L216.705,914.166L621.657,914.166L621.657,900L672.442,921.793L621.657,943.587L621.657,929.421L216.705,929.421Z" style="fill:rgb(107,255,225);"/>
    </g>
    <g transform="matrix(-0.257804,0.373617,0.870633,0.600755,814.344,92.8874)">
        <path d="M216.705,929.421L216.705,943.587L165.92,921.793L216.705,900L216.705,914.166L621.657,914.166L621.657,900L672.442,921.793L621.657,943.587L621.657,929.421L216.705,929.421Z" style="fill:rgb(107,255,225);"/>
    </g>
    <g transform="matrix(-0.257804,0.373617,0.870633,0.600755,202.658,578.949)">
        <path d="M216.705,929.421L216.705,943.587L165.92,921.793L216.705,900L216.705,914.166L621.657,914.166L621.657,900L672.442,921.793L621.657,943.587L621.657,929.421L216.705,929.421Z" style="fill:rgb(107,255,225);"/>
    </g>
    <g transform="matrix(0.842334,0,0,0.842334,1830.55,102.451)">
        <g transform="matrix(1,0,0,1,0,13.3582)">
            <circle cx="350.515" cy="326.696" r="69.786" style="fill:white;"/>
        </g>
        <g transform="matrix(1,0,0,1,0,37.8881)">
            <g transform="matrix(1.34073,0,0,1.34073,-119.43,52.036)">
                <circle cx="350.515" cy="326.696" r="69.786" style="fill:white;"/>
            </g>
            <rect x="256.951" y="490.046" width="187.128" height="93.564" style="fill:white;"/>
        </g>
    </g>
    <g transform="matrix(0.842334,0,0,0.842334,-21.0558,102.451)">
        <g transform="matrix(1,0,0,1,0,13.3582)">
            <circle cx="350.515" cy="326.696" r="69.786" style="fill:white;"/>
        </g>
        <g transform="matrix(1,0,0,1,0,37.8881)">
            <g transform="matrix(1.34073,0,0,1.34073,-119.43,52.036)">
                <circle cx="350.515" cy="326.696" r="69.786" style="fill:white;"/>
            </g>
            <rect x="256.951" y="490.046" width="187.128" height="93.564" style="fill:white;"/>
        </g>
    </g>
    <g transform="matrix(0.842334,0,0,0.842334,1408.17,1008.37)">
        <g transform="matrix(1,0,0,1,0,13.3582)">
            <circle cx="350.515" cy="326.696" r="69.786" style="fill:white;"/>
        </g>
        <g transform="matrix(1,0,0,1,0,37.8881)">
            <g transform="matrix(1.34073,0,0,1.34073,-119.43,52.036)">
                <circle cx="350.515" cy="326.696" r="69.786" style="fill:white;"/>
            </g>
            <rect x="256.951" y="490.046" width="187.128" height="93.564" style="fill:white;"/>
        </g>
    </g>
    <g transform="matrix(0.842334,0,0,0.842334,407.287,1008.37)">
        <g transform="matrix(1,0,0,1,0,13.3582)">
            <circle cx="350.515" cy="326.696" r="69.786" style="fill:white;"/>
        </g>
        <g transform="matrix(1,0,0,1,0,37.8881)">
            <g transform="matrix(1.34073,0,0,1.34073,-119.43,52.036)">
                <circle cx="350.515" cy="326.696" r="69.786" style="fill:white;"/>
            </g>
            <rect x="256.951" y="490.046" width="187.128" height="93.564" style="fill:white;"/>
        </g>
    </g>
    <defs>
        <linearGradient id="_Linear1" x1="0" y1="0" x2="1" y2="0" gradientUnits="userSpaceOnUse" gradientTransform="matrix(2100,2100,-2100,2100,150,-150)"><stop offset="0" style="stop-color:black;stop-opacity:1"/><stop offset="1" style="stop-color:rgb(0,142,181);stop-opacity:1"/></linearGradient>
    </defs>
</svg>
